X:1
T:Title
%%score 1 2
L:1/8
Q:1/4=90
M:3/4
K:Db
V:1 treble nm="Strings 1, Treble"
V:2 bass nm="Strings 1, Bass"
V:1
 z2 z2 [A,D]2 | [DF]2 [DF]2 [EG]2 | [FA]4 [FA]>[FA] | [GB]2 [GB]2 [Gd]2 | [GB]2 [FA]2 [DF]2 | %5
w: 1.~The~|har vest~ is~|past~ and~ the~|sum mer~ is~|end ed,~ A|
 [DF]2 [DE]2 D2 | [FA]4 [DA]>[DA] | [DB]2 [DA]2 [DF]2 | [CE]4 [A,D]2 | [DF]2 [DF]2 [EG]2 | %10
w: las,~ pre cious~|soul,~ this~ may~|be~ thy~ sad~|cry:~ "The~|Spir it~ is~|
 [FA]4 [FA]>[FA] | [GB]2 [GB]2 [Gd]2 | [GB]2 [FA]2 [FA]2 | [Fd]2 [Gc]2 [Ad]2 | [GB]4 [DG]>[GB] | %15
w: gone~ I've~ so~|of ten~ of|fend ed,~ And~|now~ with~ the~|lost~ I~ must~|
 [FA]2 [DF]2 [CE]2 | D4 [FA]2 | [EA]2 [FA]2 [GA]2 | [FA]4 [Ad]2 | [=Ge]2 [Ge]2 [Gd]2 | %20
w: per ish~ and~|die."~ *||||
 [Ac]4 [Gc]2 | [Fd]2 [Gd]2 [Ad]2 | [Gd]4 [_FB]>[FB][Q:1/4=89][Q:1/4=87][Q:1/4=86] | %23
w: |||
 [FA]2 [EA]2 [GA]2[Q:1/4=83][Q:1/4=82][Q:1/4=81][Q:1/4=79][Q:1/4=78][Q:1/4=77][Q:1/4=75][Q:1/4=74][Q:1/4=72][Q:1/4=71][Q:1/4=70][Q:1/4=68][Q:1/4=67] | %24
w: |
 [FA]4 z2 |] %25
w: |
V:2
 z2 z2 [D,F,]2 | [D,A,]2 [D,A,]2 [D,A,]2 | [D,D]4 [D,D]>[D,D] | [G,D]2 [G,D]2 [G,B,]2 | %4
 [D,D]2 [D,D]2 [D,A,]2 | [D,A,]2 [D,G,]2 [D,F,]2 | [D,D]4 [F,D]>[F,D] | [G,D]2 [F,D]2 [D,A,]2 | %8
 [A,,A,]4 [D,F,]2 | [D,A,]2 [D,A,]2 [D,A,]2 | [D,D]4 [D,D]>[D,D] | [G,D]2 [G,D]2 [G,B,]2 | %12
 [D,D]2 [D,D]2 [D,D]2 | [D,A,]2 [E,A,]2 [F,D]2 | [G,D]4 [G,B,]>[G,D] | [A,D]2 A,2 [A,,G,]2 | %16
 [D,F,]4 [D,D]2 | [A,,C]2 [A,,D]2 [A,,E]2 | [D,D]4 [F,A,]2 | [E,B,]2 [E,B,]2 [E,E]2 | [A,E]4 A,2 | %21
 [D,A,]2 [E,A,]2 [F,_C]2 | [G,B,]4 [=G,D]>[G,D] | [A,D]2 [A,C]2 [A,,E]2 | [D,D]4 z2 |] %25

